Obsidian-SemiLight/actions/22s/run-build-configure.svg

<svg viewBox="0 0 22 22" xmlns="http://www.w3.org/2000/svg"><path d="m11 3c-.67521.004-1.34721.092995-2 .265625v1.0332031.0117188a7 7 0 0 0 -1.3164062.5449219l-.0078126-.0078126-.7324218-.7324218c-1.16695.68805-2.140075 1.661175-2.828125 2.828125l.5214844.5214844.21875.21875a7 7 0 0 0 -.546875 1.3164062h-.0136719-1.0351563c-.17062.65304-.2578956 1.32505-.2597656 2 .004.67521.093005 1.34721.265625 2h1.0332031.0117188a7 7 0 0 0 .5449219 1.316406l-.21875.21875-.5214844.521485c.68805 1.16696 1.661165 2.140075 2.828125 2.828125l.5214844-.521485.21875-.21875a7 7 0 0 0 1.3164062.546875v.308594.740234c.65304.17062 1.32504.257896 2 .259766.335-.002.66853-.026613 1-.070312v-1.00586c-.33045.0488-.66509.074972-1 .076172-.33545-.0005-.66894-.025919-1-.074219v-.003906-.921875-.089844a6 6 0 0 1 -2.4726562-1.023437l-.0625.0625-.6503907.65039-.0039062.003907c-.5363-.40206-1.0114394-.878676-1.4121094-1.416016l.0019531-.001953.6503906-.650391.0644532-.064453a6 6 0 0 1 -1.0292969-2.470703h-.0859375-.9199219-.0039062c-.0488-.33045-.0749719-.66509-.0761719-1 .0005-.33545.0259187-.66894.0742188-1h.0039062.921875.0898438a6 6 0 0 1 1.0234374-2.4726562l-.0625-.0625-.6503906-.6503907-.0039062-.0039062c.40207-.5363.8786756-1.0114394 1.4160156-1.4121094l.0019531.0019531.6503907.6503906.0644531.0644532a6 6 0 0 1 2.4707031-1.0292969v-.0859375-.9199219-.0039062c.33044-.0488.66509-.0749719 1-.0761719.33545.0005.66894.0259187 1 .0742188v.0039062.921875.0898438a6 6 0 0 1 2.472656 1.0234374l.0625-.0625.650391-.6503906.003906-.0039062c.53631.40206 1.01143.8786756 1.412109 1.4160156l-.001953.0019531-.65039.6503907-.064453.0644531a6 6 0 0 1 1.029296 2.4707031h.085938.919922.003906c.0488.33045.074972.66509.076172 1-.00049.33545-.025919.66894-.074219 1h-.003906-.921875-.089844a6 6 0 0 1 -.271484 1h1.052734 1.048828c.17062-.65304.257896-1.32504.259766-2-.004-.6752-.092995-1.34721-.265625-2h-.734375-.310547a7 7 0 0 0 -.544922-1.3164062l.007813-.0078126.732422-.7324218c-.68803-1.16696-1.661165-2.140075-2.828125-2.828125l-.728516.7285156-.011719.0117188a7 7 0 0 0 -1.316406-.546875v-.0136719-1.0351563c-.65304-.17062-1.32504-.2578956-2-.2597656zm-2 5v6l5-3zm5 6v1h5v-1zm0 2v1h5v-1zm0 2v1h5v-1z" fill="#4d4d4d"/></svg>

<svg xmlns="http://www.w3.org/2000/svg" viewBox="0 0 22 22">
  <defs id="defs3051">
    <style type="text/css" id="current-color-scheme">
      .ColorScheme-Text {
        color:#4d4d4d;
      }
      </style>
  </defs>
 <path 
     style="fill:currentColor;fill-opacity:1;stroke:none" 
     d="M 11 3 C 10.32479 3.004 9.65279 3.092995 9 3.265625 L 9 4.2988281 L 9 4.3105469 A 7 7 0 0 0 7.6835938 4.8554688 L 7.6757812 4.8476562 L 6.9433594 4.1152344 C 5.7764094 4.8032844 4.8032844 5.7764094 4.1152344 6.9433594 L 4.6367188 7.4648438 L 4.8554688 7.6835938 A 7 7 0 0 0 4.3085938 9 L 4.2949219 9 L 3.2597656 9 C 3.0891456 9.65304 3.00187 10.32505 3 11 C 3.004 11.67521 3.093005 12.34721 3.265625 13 L 4.2988281 13 L 4.3105469 13 A 7 7 0 0 0 4.8554688 14.316406 L 4.6367188 14.535156 L 4.1152344 15.056641 C 4.8032844 16.223601 5.7763994 17.196716 6.9433594 17.884766 L 7.4648438 17.363281 L 7.6835938 17.144531 A 7 7 0 0 0 9 17.691406 L 9 18 L 9 18.740234 C 9.65304 18.910854 10.32504 18.99813 11 19 C 11.335 18.998 11.66853 18.973387 12 18.929688 L 12 17.923828 C 11.66955 17.972628 11.33491 17.9988 11 18 C 10.66455 17.9995 10.33106 17.974081 10 17.925781 L 10 17.921875 L 10 17 L 10 16.910156 A 6 6 0 0 1 7.5273438 15.886719 L 7.4648438 15.949219 L 6.8144531 16.599609 L 6.8105469 16.603516 C 6.2742469 16.201456 5.7991075 15.72484 5.3984375 15.1875 L 5.4003906 15.185547 L 6.0507812 14.535156 L 6.1152344 14.470703 A 6 6 0 0 1 5.0859375 12 L 5 12 L 4.0800781 12 L 4.0761719 12 C 4.0273719 11.66955 4.0012 11.33491 4 11 C 4.0005 10.66455 4.0259187 10.33106 4.0742188 10 L 4.078125 10 L 5 10 L 5.0898438 10 A 6 6 0 0 1 6.1132812 7.5273438 L 6.0507812 7.4648438 L 5.4003906 6.8144531 L 5.3964844 6.8105469 C 5.7985544 6.2742469 6.27516 5.7991075 6.8125 5.3984375 L 6.8144531 5.4003906 L 7.4648438 6.0507812 L 7.5292969 6.1152344 A 6 6 0 0 1 10 5.0859375 L 10 5 L 10 4.0800781 L 10 4.0761719 C 10.33044 4.0273719 10.66509 4.0012 11 4 C 11.33545 4.0005 11.66894 4.0259187 12 4.0742188 L 12 4.078125 L 12 5 L 12 5.0898438 A 6 6 0 0 1 14.472656 6.1132812 L 14.535156 6.0507812 L 15.185547 5.4003906 L 15.189453 5.3964844 C 15.725763 5.7985444 16.200883 6.27516 16.601562 6.8125 L 16.599609 6.8144531 L 15.949219 7.4648438 L 15.884766 7.5292969 A 6 6 0 0 1 16.914062 10 L 17 10 L 17.919922 10 L 17.923828 10 C 17.972628 10.33045 17.9988 10.66509 18 11 C 17.99951 11.33545 17.974081 11.66894 17.925781 12 L 17.921875 12 L 17 12 L 16.910156 12 A 6 6 0 0 1 16.638672 13 L 17.691406 13 L 18.740234 13 C 18.910854 12.34696 18.99813 11.67496 19 11 C 18.996 10.3248 18.907005 9.65279 18.734375 9 L 18 9 L 17.689453 9 A 7 7 0 0 0 17.144531 7.6835938 L 17.152344 7.6757812 L 17.884766 6.9433594 C 17.196736 5.7763994 16.223601 4.8032844 15.056641 4.1152344 L 14.328125 4.84375 L 14.316406 4.8554688 A 7 7 0 0 0 13 4.3085938 L 13 4.2949219 L 13 3.2597656 C 12.34696 3.0891456 11.67496 3.00187 11 3 z M 9 8 L 9 14 L 14 11 L 9 8 z M 14 14 L 14 15 L 19 15 L 19 14 L 14 14 z M 14 16 L 14 17 L 19 17 L 19 16 L 14 16 z M 14 18 L 14 19 L 19 19 L 19 18 L 14 18 z "
	 class="ColorScheme-Text"
     />
</svg>
